X: 1279
T: A Ha'Penny for a Cotton Ball
R:Reel
N:Collected by F. O'Neill
B:O'Neill's 1279
Z:transcribed by Trish O'Neil
M:C|
L:1/8
K:G
(GA)|B2BA Bcd2|efed efg2|BcBA GAB(G|AG)EFG2:|
d2|gfed edBd|gfede2(ef)|{a}g(fed) edBA|BGEFG2(ef)|
{a}gfe(d ed)Bd|gfede2(ef)|gbaf gfed|egfag2|]


